icon/pk/check-in.svg

<svg viewBox="0 0 48 48" fill="none" xmlns="http://www.w3.org/2000/svg" height="1em" width="1em">
  <path d="M15.9999 21.0001L22.1302 6.98819C22.5987 5.91738 23.8816 5.47476 24.9107 6.0289L35.9996 12" stroke="black" stroke-width="4" stroke-linecap="round" stroke-linejoin="round"/>
  <path d="M26 31L26 12L42 12L42 41L26 41L26 37" stroke="black" stroke-width="4" stroke-linecap="round" stroke-linejoin="round"/>
  <path d="M4 44C13 44 13.7691 38.6834 16.3302 38.3125C19.3527 37.8748 22.4317 37.6497 25.1033 37C28.497 36.1747 31.2335 35.1121 32.3623 34.6448C32.7291 34.4929 33.0343 34.2285 33.2178 33.8764C33.7811 32.795 34.7903 30.4101 32.9209 30.1094C30.493 29.7188 22.9806 32.5833 19.1276 32.0625C15.2746 31.5417 16.6293 28.9375 17.8433 28.1563C21.1401 26.0345 25 27 25 27V18C25 18 10.3335 21.75 5 28.1563" stroke="black" stroke-width="4" stroke-linecap="round" stroke-linejoin="round"/>
  <path d="M32 21L42 21" stroke="black" stroke-width="4" stroke-linecap="round" stroke-linejoin="round"/>
</svg>

<svg width="48" height="48" fill="none" xmlns="http://www.w3.org/2000/svg"><path d="m16 21 6.13-14.012a2 2 0 0 1 2.78-.96L36 12" stroke="#000" stroke-width="4" stroke-linecap="round" stroke-linejoin="round"/><path d="M26 31V12h16v29H26v-4" stroke="#000" stroke-width="4" stroke-linecap="round" stroke-linejoin="round"/><path d="M4 44c9 0 9.77-5.317 12.33-5.688 3.023-.437 6.102-.662 8.773-1.312a51.55 51.55 0 0 0 7.26-2.355c.366-.152.671-.417.855-.769.563-1.081 1.572-3.466-.297-3.767-2.428-.39-9.94 2.474-13.793 1.953-3.853-.52-2.499-3.124-1.285-3.906C21.14 26.035 25 27 25 27v-9S10.334 21.75 5 28.156M32 21h10" stroke="#000" stroke-width="4" stroke-linecap="round" stroke-linejoin="round"/></svg>
